X: 1
T: Frank's Favourite
M: 4/4
L: 1/8
R: reel
K: Dmaj
c3 d edcA | BABc dcBc | AE E2 FEF^G | AE^GE FECE |
 AE E2 AEcE | BABc dcBd | cdec dcBd |1 cAB^G Aced :|2 cAB^G A=fed ||
=c3 d ecAc | BAB=c dBGd | eAdA =cABd | =cABG AG=FD |
E3 A e=cAc | BAB=c dGBd |1 eAdA =cABd | =cABG AGAB :|2 eA A2 eAeA | eAdA cABA ||
